docs/docs/assets/factory.svg

<svg width="127" height="19" viewBox="0 0 127 19" fill="none" xmlns="http://www.w3.org/2000/svg">
<style>.fill{fill:#000}@media(prefers-color-scheme:dark){.fill{fill:#fff}}</style>
<title>Factory.ai Logo</title>
<path d="M28.3945 15.8524V2.62109H38.3002V4.98361H31.0123V8.08378H37.5247V10.3707H31.0123V15.8524H28.3945Z" class="fill"/>
<path d="M40.0078 15.8524L44.0729 4.47837C44.2668 3.93574 44.6291 3.46542 45.1098 3.13264C45.5902 2.79987 46.1646 2.62105 46.754 2.62109C47.3471 2.62101 47.9253 2.80205 48.4073 3.13879C48.8893 3.47552 49.2511 3.95101 49.4422 4.49858L53.4007 15.8524H50.7067L49.7568 13.0926H43.7098L42.7213 15.8524H40.0078ZM44.484 10.7866H48.9809L47.3554 6.01714C47.1614 5.44722 46.3358 5.4452 46.139 6.0139L44.484 10.7866Z" class="fill"/>
<path d="M55.4336 9.23577C55.4336 5.51233 58.5151 2.46875 62.3336 2.46875C65.144 2.46875 67.4314 4.13241 68.5165 6.49493L66.0355 7.19459C65.338 5.85226 64.0585 4.88826 62.3336 4.88826C59.8526 4.88826 58.0306 6.81627 58.0306 9.23577C58.0306 11.6553 59.8542 13.5643 62.3336 13.5643C64.0585 13.5643 65.299 12.6949 65.9775 11.3339L68.497 11.9956C67.431 14.3399 65.1635 15.9838 62.3336 15.9838C58.5151 15.9838 55.4336 12.9608 55.4336 9.23577Z" class="fill"/>
<path d="M75.4167 15.8524V4.98361H71.1523V2.62109H82.1227V4.98361H78.0138V15.8524H75.4167Z" class="fill"/>
<path d="M84.7821 9.14791C84.8414 5.43538 87.9163 2.46657 91.7231 2.4884C95.5221 2.51063 98.5816 5.52637 98.6007 9.25547C98.6197 12.9846 95.4997 16.0055 91.6812 16.0055C87.8263 16.0035 84.722 12.9211 84.7821 9.14791ZM95.9842 9.25547C95.9842 6.83596 94.1606 4.84975 91.6812 4.84975C89.2198 4.84975 87.3783 6.83434 87.3783 9.25547C87.3783 11.656 89.2019 13.6208 91.6812 13.6208C94.1606 13.6208 95.9842 11.675 95.9842 9.25547Z" class="fill"/>
<path d="M102.145 15.8524V2.62109H108.25C110.925 2.62109 112.94 4.70027 112.94 7.10078C112.938 7.95978 112.666 8.79743 112.16 9.50052C111.654 10.2037 110.939 10.7383 110.111 11.0324L113.134 15.8524H110.169L107.358 11.3537H104.763V15.8524H102.145ZM104.761 9.14277H108.211C109.452 9.14277 110.421 8.25354 110.421 7.026C110.421 5.83525 109.509 4.90883 108.25 4.90883H104.763L104.761 9.14277Z" class="fill"/>
<path d="M119.726 11.7126L115.016 2.62109H117.788L121.005 8.83963L124.222 2.62109H126.994L122.342 11.6371V15.8524H119.726V11.7126Z" class="fill"/>
<path d="M13.9062 3.20484C13.8706 3.19623 13.8373 3.18019 13.8086 3.15788C13.7799 3.13552 13.7565 3.10743 13.74 3.07546C13.7234 3.04349 13.7142 3.00841 13.7128 2.97263C13.7115 2.93682 13.7181 2.90121 13.7322 2.86815C14.2188 1.71337 14.4334 0.789376 14.087 0.402562C13.1693 -0.623688 9.48933 1.41705 8.31598 2.10822C8.28457 2.12665 8.24942 2.13825 8.21299 2.14222C8.17656 2.14618 8.13967 2.14242 8.10486 2.13122C8.07004 2.12003 8.03809 2.10163 8.01123 2.0773C7.98437 2.05297 7.96323 2.02326 7.94918 1.99024C7.45597 0.83788 6.93748 0.036362 6.41194 0.00160127C5.01894 -0.0913635 3.89616 3.88951 3.56749 5.18697C3.5587 5.22173 3.54233 5.25423 3.5195 5.2822C3.49662 5.31021 3.46781 5.33305 3.43507 5.34918C3.40233 5.3653 3.36639 5.37432 3.32971 5.37561C3.29307 5.37694 3.25656 5.37052 3.22266 5.35677C2.03854 4.88225 1.09066 4.67288 0.694439 5.01078C-0.35788 5.90567 1.73432 9.49452 2.44305 10.6388C2.462 10.6694 2.47393 10.7037 2.47804 10.7392C2.48214 10.7748 2.47833 10.8108 2.46684 10.8447C2.45536 10.8787 2.43646 10.9099 2.41147 10.9361C2.38648 10.9623 2.35598 10.9828 2.32203 10.9965C1.14081 11.4775 0.318936 11.9831 0.282878 12.4956C0.187966 13.8541 4.26959 14.9491 5.60043 15.2696C5.63599 15.2783 5.66919 15.2943 5.69783 15.3167C5.72642 15.339 5.7498 15.3671 5.76625 15.399C5.78275 15.4309 5.79199 15.4659 5.79332 15.5016C5.79469 15.5373 5.78814 15.5729 5.77409 15.6059C5.28751 16.7607 5.07282 17.6851 5.41931 18.0715C6.33693 19.0977 10.0173 17.0574 11.1907 16.3662C11.2221 16.3477 11.2573 16.3361 11.2937 16.3321C11.3302 16.3281 11.3671 16.3318 11.4019 16.343C11.4368 16.3542 11.4687 16.3727 11.4955 16.397C11.5224 16.4214 11.5435 16.4511 11.5575 16.4842C12.0507 17.6362 12.5688 18.4377 13.0947 18.4729C14.4877 18.5654 15.6105 14.5849 15.9388 13.2871C15.9476 13.2524 15.9641 13.2199 15.987 13.192C16.0099 13.164 16.0388 13.1412 16.0716 13.1251C16.1043 13.1091 16.1403 13.1001 16.177 13.0988C16.2136 13.0975 16.2502 13.1039 16.284 13.1177C17.4681 13.5922 18.4156 13.8012 18.8122 13.4637C19.8646 12.5688 17.7719 8.97953 17.0632 7.83525C17.0444 7.80462 17.0326 7.77034 17.0286 7.73485C17.0245 7.69932 17.0284 7.66335 17.0399 7.62944C17.0514 7.59549 17.0702 7.56436 17.0951 7.53817C17.12 7.51198 17.1504 7.49129 17.1842 7.47758C18.3659 6.99659 19.1877 6.4909 19.2234 5.97838C19.3187 4.61989 15.2367 3.52497 13.9062 3.20484ZM12.3081 1.90249C12.5758 2.37055 11.1961 5.48935 10.1699 7.67079C10.1527 7.70725 10.1245 7.73772 10.0891 7.75809C10.0536 7.77847 10.0126 7.78776 9.97155 7.78473C9.93052 7.7817 9.8914 7.76646 9.85952 7.74112C9.82761 7.71573 9.80444 7.68146 9.79313 7.64286C9.37866 6.22454 8.90493 4.55809 8.39805 3.14341C8.37815 3.08787 8.37915 3.02724 8.40087 2.97239C8.42258 2.9175 8.46361 2.87195 8.51658 2.84386C9.78235 2.16966 11.9483 1.27437 12.3081 1.90249ZM6.24201 2.28849C6.77045 2.43481 8.05612 5.59161 8.91198 7.84176C8.92628 7.87935 8.92839 7.9203 8.91811 7.95914C8.90779 7.99794 8.88558 8.03274 8.85441 8.0589C8.8232 8.08505 8.78457 8.10126 8.74367 8.10534C8.70276 8.10946 8.66156 8.10126 8.62559 8.08185C7.30304 7.36603 5.76082 6.51318 4.37652 5.86242C4.32231 5.83676 4.27921 5.79322 4.25483 5.73947C4.23046 5.68575 4.22644 5.62532 4.24348 5.56898C4.65089 4.22058 5.53204 2.09246 6.24201 2.28849ZM2.23251 6.74474C2.71204 6.48363 5.91044 7.82923 8.14688 8.83002C8.18431 8.84675 8.21556 8.87424 8.23645 8.90884C8.25734 8.94339 8.26687 8.98341 8.26376 9.02343C8.26061 9.06344 8.24503 9.10156 8.219 9.13268C8.19301 9.16376 8.15787 9.1864 8.11828 9.19743C6.66435 9.60162 4.95511 10.0636 3.50449 10.558C3.44763 10.5772 3.38554 10.5762 3.32938 10.555C3.27322 10.5339 3.22655 10.4939 3.19779 10.4423C2.50771 9.2079 1.58802 7.09558 2.23251 6.74474ZM2.62832 12.6606C2.77794 12.1452 6.0153 10.8914 8.32261 10.0567C8.36116 10.0428 8.40319 10.0407 8.44297 10.0508C8.4828 10.0608 8.51849 10.0825 8.5453 10.1129C8.57208 10.1433 8.58874 10.181 8.59293 10.2209C8.59711 10.2607 8.5887 10.3009 8.56881 10.336C7.83438 11.6258 6.95986 13.1298 6.29258 14.4794C6.26651 14.5325 6.22187 14.5747 6.16671 14.5986C6.11158 14.6224 6.04954 14.6263 5.99168 14.6096C4.60903 14.2147 2.42689 13.353 2.62832 12.6606ZM7.19776 16.5707C6.92961 16.1031 8.30977 12.9839 9.33597 10.8029C9.35313 10.7664 9.38136 10.7359 9.41679 10.7155C9.45227 10.6952 9.49326 10.6859 9.53429 10.6889C9.57537 10.6919 9.61445 10.7072 9.64632 10.7325C9.67824 10.7579 9.7014 10.7922 9.71272 10.8308C10.1272 12.2487 10.6009 13.9156 11.1078 15.3303C11.1276 15.3858 11.1265 15.4463 11.1047 15.5011C11.0829 15.5559 11.0418 15.6014 10.9888 15.6294C9.7235 16.3023 7.5571 17.1993 7.19901 16.5707H7.19776ZM13.2638 16.1847C12.735 16.0388 11.4493 12.8817 10.5935 10.6315C10.5791 10.5938 10.5769 10.5528 10.5872 10.5139C10.5975 10.475 10.6198 10.4401 10.6511 10.414C10.6823 10.3878 10.7211 10.3716 10.762 10.3676C10.803 10.3635 10.8443 10.3719 10.8803 10.3914C12.2024 11.1072 13.745 11.9605 15.1289 12.6113C15.1832 12.6368 15.2264 12.6803 15.2508 12.7341C15.2752 12.7878 15.2792 12.8483 15.262 12.9047C14.855 14.2551 13.9738 16.3811 13.2638 16.1847ZM17.2733 11.7285C16.7934 11.99 13.5954 10.644 11.3586 9.64322C11.3211 9.62648 11.2899 9.599 11.269 9.5644C11.2481 9.52984 11.2386 9.48983 11.2417 9.44981C11.2448 9.40979 11.2604 9.37168 11.2864 9.34056C11.3124 9.30947 11.3476 9.28688 11.3871 9.27584C12.8415 8.87165 14.5503 8.40962 16.0009 7.91529C16.0579 7.89601 16.1201 7.89706 16.1763 7.91832C16.2326 7.93958 16.2793 7.97963 16.3081 8.03133C16.9977 9.26534 17.9174 11.378 17.2733 11.7285ZM16.8775 5.81266C16.7275 6.32842 13.4905 7.58227 11.1832 8.41693C11.1446 8.43092 11.1025 8.43302 11.0627 8.42299C11.0228 8.41293 10.987 8.39122 10.9602 8.36075C10.9334 8.33027 10.9168 8.29248 10.9126 8.2525C10.9085 8.21257 10.917 8.17231 10.937 8.13719C11.6711 6.84781 12.5456 5.3434 13.2129 3.99379C13.2391 3.94088 13.2837 3.8988 13.3389 3.87504C13.394 3.85127 13.456 3.84735 13.5138 3.86404C14.8964 4.26096 17.0785 5.12028 16.8775 5.81266Z" class="fill"/>
</svg>

<svg xmlns="http://www.w3.org/2000/svg" width="127" height="19" fill="none" viewBox="0 0 127 19"><style>.fill{fill:#000}@media (prefers-color-scheme:dark){.fill{fill:#fff}}</style><title>Factory.ai Logo</title><path d="M28.395 15.852V2.622H38.3v2.362h-7.288v3.1h6.513v2.287h-6.513v5.481zM40.008 15.852l4.065-11.374a2.78 2.78 0 0 1 1.037-1.345 2.9 2.9 0 0 1 1.644-.512c.593 0 1.171.181 1.653.518s.844.812 1.035 1.36l3.959 11.353h-2.694l-.95-2.76H43.71l-.989 2.76zm4.476-5.065h4.497l-1.626-4.77c-.194-.57-1.02-.572-1.216-.003zM55.434 9.236c0-3.724 3.081-6.767 6.9-6.767 2.81 0 5.097 1.663 6.182 4.026l-2.48.7c-.698-1.343-1.978-2.307-3.702-2.307-2.481 0-4.303 1.928-4.303 4.348s1.823 4.328 4.303 4.328c1.724 0 2.965-.87 3.644-2.23l2.519.662c-1.066 2.344-3.334 3.988-6.163 3.988-3.819 0-6.9-3.023-6.9-6.748M75.417 15.852V4.984h-4.265V2.62h10.97v2.363h-4.108v10.868zM84.782 9.148c.06-3.713 3.134-6.681 6.941-6.66 3.8.023 6.859 3.038 6.878 6.767s-3.101 6.75-6.92 6.75c-3.855-.002-6.959-3.084-6.899-6.857m11.202.107c0-2.419-1.823-4.405-4.303-4.405-2.461 0-4.303 1.984-4.303 4.405 0 2.401 1.824 4.366 4.303 4.366s4.303-1.946 4.303-4.366M102.145 15.852V2.622h6.105c2.675 0 4.69 2.078 4.69 4.479a4.12 4.12 0 0 1-.78 2.4 4.3 4.3 0 0 1-2.049 1.531l3.023 4.82h-2.965l-2.811-4.498h-2.595v4.498zm2.616-6.71h3.45c1.241 0 2.21-.888 2.21-2.116 0-1.19-.912-2.117-2.171-2.117h-3.487zM119.726 11.713l-4.71-9.092h2.772l3.217 6.219 3.217-6.219h2.772l-4.652 9.016v4.215h-2.616zM13.906 3.205a.26.26 0 0 1-.166-.13.24.24 0 0 1-.008-.207c.487-1.155.701-2.079.355-2.465-.918-1.027-4.598 1.014-5.771 1.705a.26.26 0 0 1-.367-.118C7.456.838 6.937.036 6.412.002 5.019-.091 3.896 3.89 3.567 5.187a.25.25 0 0 1-.132.162.26.26 0 0 1-.212.008C2.039 4.882 1.09 4.673.694 5.01c-1.052.895 1.04 4.484 1.749 5.628a.244.244 0 0 1-.121.357c-1.181.481-2.003.987-2.04 1.5C.189 13.854 4.27 14.949 5.6 15.27a.26.26 0 0 1 .166.129.24.24 0 0 1 .008.207c-.486 1.155-.701 2.08-.355 2.466.918 1.026 4.598-1.015 5.772-1.706a.26.26 0 0 1 .366.118c.494 1.152 1.012 1.954 1.538 1.989 1.393.092 2.515-3.888 2.844-5.186a.25.25 0 0 1 .133-.162.26.26 0 0 1 .212-.007c1.184.474 2.132.683 2.528.346 1.053-.895-1.04-4.484-1.749-5.629a.244.244 0 0 1 .032-.297.3.3 0 0 1 .09-.06c1.18-.481 2.003-.987 2.038-1.5.096-1.358-3.986-2.453-5.317-2.773m-1.598-1.303c.268.469-1.112 3.587-2.138 5.769a.2.2 0 0 1-.08.087.21.21 0 0 1-.23-.017.2.2 0 0 1-.067-.098c-.414-1.418-.888-3.085-1.395-4.5a.24.24 0 0 1 .003-.17.25.25 0 0 1 .116-.13c1.265-.673 3.431-1.569 3.791-.94m-6.066.386c.528.147 1.814 3.304 2.67 5.554a.19.19 0 0 1-.058.217.2.2 0 0 1-.228.023c-1.323-.716-2.865-1.569-4.25-2.22a.25.25 0 0 1-.121-.123.24.24 0 0 1-.012-.17c.408-1.348 1.289-3.477 1.999-3.28m-4.01 4.457c.48-.261 3.678 1.084 5.915 2.085a.2.2 0 0 1 .09.079.19.19 0 0 1-.018.224.2.2 0 0 1-.1.064c-1.455.405-3.164.867-4.615 1.361a.26.26 0 0 1-.175-.003.25.25 0 0 1-.131-.113c-.69-1.234-1.61-3.346-.965-3.697m.396 5.916c.15-.516 3.387-1.77 5.695-2.604a.21.21 0 0 1 .222.056.19.19 0 0 1 .024.223c-.735 1.29-1.61 2.794-2.276 4.143a.25.25 0 0 1-.126.12.26.26 0 0 1-.175.01c-1.383-.394-3.565-1.256-3.364-1.948m4.57 3.91c-.268-.468 1.112-3.587 2.138-5.768a.2.2 0 0 1 .08-.088.21.21 0 0 1 .23.018q.049.04.067.098c.414 1.418.888 3.085 1.395 4.5a.24.24 0 0 1-.003.17.25.25 0 0 1-.116.128c-1.266.673-3.432 1.57-3.79.942zm6.066-.386c-.529-.146-1.815-3.303-2.67-5.553a.19.19 0 0 1 .057-.218.2.2 0 0 1 .23-.023c1.321.716 2.864 1.57 4.248 2.22a.25.25 0 0 1 .122.123.24.24 0 0 1 .011.17c-.407 1.351-1.288 3.477-1.998 3.28m4.01-4.456c-.48.261-3.679-1.085-5.915-2.086a.2.2 0 0 1-.09-.079.19.19 0 0 1 .017-.223.2.2 0 0 1 .101-.065c1.454-.404 3.163-.866 4.614-1.36a.26.26 0 0 1 .175.002.25.25 0 0 1 .132.113c.69 1.234 1.61 3.347.965 3.698m-.396-5.916c-.15.515-3.387 1.77-5.695 2.604a.21.21 0 0 1-.223-.056.195.195 0 0 1-.023-.224c.734-1.29 1.609-2.794 2.276-4.143a.25.25 0 0 1 .126-.119.26.26 0 0 1 .175-.011c1.382.397 3.564 1.256 3.364 1.949" class="fill"/></svg>
